public/logos/ibm.svg

<?xml version="1.0" encoding="UTF-8"?><svg id="Layer_1" xmlns="http://www.w3.org/2000/svg" viewBox="0 0 420 168"><defs><style>.cls-1{fill:#a682fa;fill-rule:evenodd;}</style></defs><path class="cls-1" d="M0,0V11.49H81.75V0H0ZM93.33,0V11.49h116.5S197.94,0,182.18,0H93.33ZM232.69,0V11.49h70.48l-4.18-11.49h-66.3Zm121.01,0l-4.18,11.49h69.84V0h-65.66ZM0,22.35v11.49H81.75v-11.49H0Zm93.33,.02v11.48H223.35s-1.52-8.85-4.17-11.48H93.33Zm139.36,0v11.48h78.21l-3.87-11.48h-74.34Zm112.64,0l-3.87,11.48h77.9v-11.48h-74.02ZM23.49,44.71v11.51H58.9v-11.51H23.49Zm93.33,0v11.51h35.4v-11.51h-35.4Zm69.84,0v11.51h35.4s2.25-6.08,2.25-11.51h-37.65Zm69.51,0v11.51h62.77l-4.18-11.51h-58.59Zm81.44,0l-4.2,11.51h63.08v-11.51h-58.88ZM23.49,67.08v11.49H58.9v-11.49H23.49Zm93.33,0v11.49h90.43s7.57-5.9,9.98-11.49H116.83Zm139.35,0v11.49h35.4v-6.4l2.25,6.4h64.85l2.41-6.4v6.4h35.4v-11.49h-66.46l-3.53,9.74-3.54-9.74h-66.79ZM23.49,89.43v11.49H58.9v-11.49H23.49Zm93.33,0v11.49h100.41c-2.41-5.58-9.98-11.49-9.98-11.49H116.83Zm139.36,0v11.49h35.4v-11.49h-35.4Zm41.83,0l4.28,11.49h48.63l4.07-11.49h-56.98Zm63.08,0v11.49h35.4v-11.49h-35.4ZM23.49,111.78v11.49H58.9v-11.49H23.49Zm93.33,0v11.49h35.4v-11.49h-35.4Zm69.84,0v11.49h37.65c0-5.43-2.25-11.49-2.25-11.49h-35.4Zm69.51,0v11.49h35.4v-11.49h-35.4Zm49.88,0l4.15,11.49h32.6l4.18-11.49h-40.93Zm55.04,0v11.49h35.4v-11.49h-35.4ZM.64,134.14v11.51H82.39v-11.51H.64Zm92.7,0v11.51h125.85c2.65-2.64,4.17-11.51,4.17-11.51H93.33Zm139.99,0v11.51h58.26v-11.51h-58.26Zm80.78,0l4.27,11.51h16.59l4-11.51h-24.86Zm46.99,0v11.51h58.9v-11.51h-58.9ZM.64,156.51v11.49H82.39v-11.49H.64Zm92.7,0v11.48h88.84c15.76,0,27.66-11.48,27.66-11.48H93.33Zm139.99,0v11.49h58.26v-11.49h-58.26Zm88.87,0l4.1,11.46,.7,.02,4.17-11.48h-8.97Zm38.9,0v11.49h58.9v-11.49h-58.9Z"/></svg>

<?xml version="1.0" encoding="utf-8"?>
<!-- Generator: Adobe Illustrator 26.5.0, SVG Export Plug-In . SVG Version: 6.00 Build 0)  -->
<svg version="1.1" id="Layer_1" xmlns="http://www.w3.org/2000/svg" xmlns:xlink="http://www.w3.org/1999/xlink" x="0px" y="0px"
	 viewBox="0 0 420 168" style="enable-background:new 0 0 420 168;" xml:space="preserve">
<style type="text/css">
	.st0{fill-rule:evenodd;clip-rule:evenodd;fill:#683AFF;}
</style>
<path class="st0" d="M0,0v11.5h81.8V0H0z M93.3,0v11.5h116.5c0,0-11.9-11.5-27.7-11.5H93.3z M232.7,0v11.5h70.5L299,0H232.7L232.7,0
	z M353.7,0l-4.2,11.5h69.8V0H353.7z M0,22.4v11.5h81.8V22.4H0z M93.3,22.4v11.5h130c0,0-1.5-8.9-4.2-11.5
	C219.2,22.4,93.3,22.4,93.3,22.4z M232.7,22.4v11.5h78.2L307,22.4C307,22.4,232.7,22.4,232.7,22.4z M345.3,22.4l-3.9,11.5h77.9V22.4
	L345.3,22.4L345.3,22.4z M23.5,44.7v11.5h35.4V44.7H23.5z M116.8,44.7v11.5h35.4V44.7H116.8z M186.7,44.7v11.5h35.4
	c0,0,2.2-6.1,2.2-11.5H186.7z M256.2,44.7v11.5h62.8l-4.2-11.5H256.2z M337.6,44.7l-4.2,11.5h63.1V44.7H337.6L337.6,44.7z
	 M23.5,67.1v11.5h35.4V67.1H23.5z M116.8,67.1v11.5h90.4c0,0,7.6-5.9,10-11.5H116.8L116.8,67.1z M256.2,67.1v11.5h35.4v-6.4l2.2,6.4
	h64.9l2.4-6.4v6.4h35.4V67.1H330l-3.5,9.7l-3.5-9.7H256.2L256.2,67.1z M23.5,89.4v11.5h35.4V89.4H23.5z M116.8,89.4v11.5h100.4
	c-2.4-5.6-10-11.5-10-11.5H116.8L116.8,89.4z M256.2,89.4v11.5h35.4V89.4H256.2z M298,89.4l4.3,11.5h48.6l4.1-11.5H298z M361.1,89.4
	v11.5h35.4V89.4H361.1z M23.5,111.8v11.5h35.4v-11.5H23.5z M116.8,111.8v11.5h35.4v-11.5H116.8z M186.7,111.8v11.5h37.6
	c0-5.4-2.2-11.5-2.2-11.5H186.7z M256.2,111.8v11.5h35.4v-11.5H256.2z M306.1,111.8l4.1,11.5h32.6l4.2-11.5H306.1z M361.1,111.8
	v11.5h35.4v-11.5H361.1z M0.6,134.1v11.5h81.8v-11.5H0.6z M93.3,134.1v11.5h125.9c2.6-2.6,4.2-11.5,4.2-11.5H93.3L93.3,134.1z
	 M233.3,134.1v11.5h58.3v-11.5H233.3z M314.1,134.1l4.3,11.5H335l4-11.5H314.1z M361.1,134.1v11.5H420v-11.5H361.1z M0.6,156.5V168
	h81.8v-11.5H0.6z M93.3,156.5V168h88.8c15.8,0,27.7-11.5,27.7-11.5H93.3L93.3,156.5z M233.3,156.5V168h58.3v-11.5H233.3z
	 M322.2,156.5l4.1,11.5l0.7,0l4.2-11.5L322.2,156.5L322.2,156.5z M361.1,156.5V168H420v-11.5H361.1z"/>
</svg>
